icons/hearing_aid_fill.svg

<svg width="48" height="48" viewBox="0 0 48 48" fill="none" xmlns="http://www.w3.org/2000/svg">
<path fill-rule="evenodd" clip-rule="evenodd" d="M15 18C15 11.9249 19.9249 7 26 7C32.0751 7 37 11.9249 37 18C37 21.8069 35.067 25.1627 32.1242 27.139C29.6282 28.8153 27 31.4539 27 34.9113V35C27 38.3137 24.3137 41 21 41C17.6863 41 15 38.3137 15 35V34.1421C15 32.1321 15.6724 30.1914 16.8926 28.6208L17.6716 29.3998C18.0282 29.7564 18.5946 29.7917 18.9927 29.482L24.8716 24.9095C25.2389 24.9691 25.6159 25 26 25C29.866 25 33 21.866 33 18C33 14.134 29.866 11 26 11C22.134 11 19 14.134 19 18C19 18.5406 19.0613 19.0668 19.1773 19.5722L14.7609 25.2503C14.4513 25.6484 14.4866 26.2147 14.8432 26.5714L15.4693 27.1975C13.8793 29.1505 13 31.601 13 34.1421V35C13 39.4183 16.5817 43 21 43C25.4183 43 29 39.4183 29 35V34.9113C29 32.5075 30.8696 30.3908 33.2393 28.7993C36.7115 26.4674 39 22.5012 39 18C39 10.8203 33.1797 5 26 5C18.8203 5 13 10.8203 13 18H15ZM20.0564 21.6995C20.6876 22.7116 21.5702 23.5507 22.6168 24.1296L18.4616 27.3613L16.8816 25.7814L20.0564 21.6995Z" fill="black"/>
</svg>

<svg
  xmlns="http://www.w3.org/2000/svg"
  width="24"
  height="24"
  viewBox="0 0 24 24"
  fill="none"
  stroke="currentColor"
  stroke-width="2"
  stroke-linecap="round"
  stroke-linejoin="round"
>
  <path
    fill-rule="evenodd"
    d="M15 18c0-6.075 4.925-11 11-11s11 4.925 11 11c0 3.807-1.933 7.163-4.876 9.139C29.628 28.815 27 31.454 27 34.911V35a6 6 0 0 1-12 0v-.858a9 9 0 0 1 1.893-5.521l.779.779a1 1 0 0 0 1.32.082l5.88-4.572Q25.423 25 26 25a7 7 0 1 0-6.823-5.428l-4.416 5.678a1 1 0 0 0 .082 1.321l.626.627A11 11 0 0 0 13 34.142V35a8 8 0 1 0 16 0v-.089c0-2.404 1.87-4.52 4.24-6.112A12.99 12.99 0 0 0 39 18c0-7.18-5.82-13-13-13s-13 5.82-13 13zm5.056 3.7a7.03 7.03 0 0 0 2.56 2.43l-4.154 3.231-1.58-1.58z"
    clip-rule="evenodd"
  />
</svg>
